svgs/asus_file_manager.svg

<svg width="24" height="24" viewBox="0 0 24 24" fill="none" xmlns="http://www.w3.org/2000/svg">
<path fill-rule="evenodd" clip-rule="evenodd" d="M4 3C2.89543 3 2 3.89543 2 5V18C2 19.1046 2.89543 20 4 20H20C21.1046 20 22 19.1046 22 18V8C22 6.89543 21.1046 6 20 6H11.5C10.9477 6 10.5 5.55228 10.5 5C10.5 3.89543 9.60457 3 8.5 3H4ZM20 18H4L4 8H20V18Z" fill="#FFF1C0"/>
</svg>

<svg xmlns="http://www.w3.org/2000/svg" viewBox="0 0 24 24"><path d="M4 3a2 2 0 0 0-2 2v13a2 2 0 0 0 2 2h16a2 2 0 0 0 2-2V8a2 2 0 0 0-2-2h-8.5a1 1 0 0 1-1-1 2 2 0 0 0-2-2zm16 15H4V8h16z"/></svg>
